!!!!SEGMENT: pl-kk--kk-i-2--052-004_pekiel-bartlomiej--missa-secunda-sanctus.krn
!!!cenid: 16xx:1738
!!!COM: Pękiel, Bartłomiej
!!!COM-rismID: pe30105642
!!!CDT: <1633-~1670
!!!CNT: Polish
!!!OPR: Missa secunda
!!!OTL: Sanctus
!!!OMV: 004
!!!PDT:
!!!AGN: Sacred; Mass
!!!SMS-siglum: PL-Kk
!!!SMS-shelfmark: Kk.I.2
!!!SMS-shelfwork: 052-004 M
!!!NIFC-rismSourceID: 300258070
!!!NIFC-islandoraID: pl-kk:750
!!!URL-pdf-islandora: https://repozytorium.nifc.pl/islandora/object/pl-kk%3A750/datastream/PDF/view#page=91
!!!URL-scan: https://polish.musicsources.pl/pl/lokalizacje/galeria/rekopisy/5828 @EN{Scan on Polish Music Herritage in Open Access Website} @PL{Skany w portalu Dziedzictwo Muzyki Polskiej w otwartym dostępie}
!!!ONB-nifc: Części mszy: Kyrie, Gloria, Credo, Sanctus, Benedictus, Agnus Dei; skany: C: 0095; A: 0198-0199; T: 0297-0298; B: 0400
!!!AIN: 1 alt 1 bass 1 soprn 1 tenor
!!!key: F:ion
**kern	**text	**kern	**text	**kern	**text	**kern	**text
*part4	*part4	*part3	*part3	*part2	*part2	*part1	*part1
*staff4	*staff4	*staff3	*staff3	*staff2	*staff2	*staff1	*staff1
*I"BASVS	*	*I"TENOR	*	*I"ALTVS	*	*I"DISCANTVS	*
*I'B	*	*I'T	*	*I'A	*	*I'S	*
*Ibass	*	*Itenor	*	*Ialt	*	*Isoprn	*
*ICvox	*	*ICvox	*	*ICvox	*	*ICvox	*
*mI"Basso	*	*mI"Tenore	*	*mI"Alto	*	*mI"Sooprano	*
*clefF4	*	*clefC4	*	*clefC4	*	*clefC3	*
*	*	*mclefGv2	*	*mclefGv2	*	*mclefGv2	*
*k[b-]	*	*k[b-]	*	*k[b-]	*	*k[b-]	*
*F:ion	*	*F:ion	*	*F:ion	*	*F:ion	*
*M2/1	*	*M2/1	*	*M2/1	*	*M2/1	*
*mmet(c)	*	*mmet(c)	*	*mmet(c)	*	*mmet(c)	*
*met(C|)	*	*met(C|)	*	*met(C|)	*	*met(C|)	*
*all\right	*	*all\right	*	*all\right	*	*all\right	*
=1-	=1-	=1-	=1-	=1-	=1-	=1-	=1-
*lig	*	*	*	*	*	*	*
1C	San-	1c	San-	0r	.	0r	.
*2\right	*	*	*	*	*	*	*
*col	*	*	*	*	*	*	*
2.D\	.	2F/	-ctus	.	.	.	.
*	*	*	*ij	*	*	*	*
.	.	1B-\	San-	.	.	.	.
*Xlig	*	*	*	*	*	*	*
!LO:TX:t=P:problem:kreska pseudotaktowa	!	!	!	!	!	!	!
4C/	.	.	.	.	.	.	.
*Xcol	*	*	*	*	*	*	*
=2-	=2-	=2-	=2-	=2-	=2-	=2-	=2-
!	!	!	!	!LO:TX:t=P:problem:kreska pseudotaktowa	!	!LO:TX:t=P:problem:kreska pseudotaktowa	!
4D/	.	.	.	1r	.	1r	.
4E\	.	.	.	.	.	.	.
!	!	!LO:TX:t=P:problem:kreska pseudotaktowa	!	!	!	!	!
1F	.	2A/	.	.	.	.	.
.	.	1G	.	1c	San-	1c	San-
!LO:TX:t=P:problem:kreska pseudotaktowa	!	!	!	!	!	!	!
2E\	.	.	.	.	.	.	.
=3-	=3-	=3-	=3-	=3-	=3-	=3-	=3-
*	*	*	*	*	*	*2\right	*
!	!	!LO:TX:t=P:problem:kreska pseudotaktowa	!	!	!LO:MO:mod=-ctus	!	!
2D/	.	1F	-ctus	2F/	-ct(us)	2.d\	.
*	*	*	*Xij	*	*	*	*
1BB-	.	.	.	1B-	.	.	.
!	!	!	!	!	!	!LO:TX:t=P:problem:kreska pseudotaktowa	!
.	.	.	.	.	.	4c\	.
.	.	1r	.	.	.	4d\	.
.	.	.	.	.	.	4e\	.
!LO:TX:t=P:problem:kreska pseudotaktowa	!	!	!	!LO:TX:t=P:problem:kreska pseudotaktowa	!	!	!
2D/	.	.	.	2A/	San-	1f\	.
=4-	=4-	=4-	=4-	=4-	=4-	=4-	=4-
*	*	*lig	*	*	*	*	*
!	!	!	!	!	!LO:MO:mod=-ctus	!	!
1C	.	1G	San-	2G/	-ct(us)	.	.
*	*	*2\right	*	*2\right	*ij	*	*
!	!	!	!	!	!	!LO:TX:t=P:problem:kreska pseudotaktowa	!
.	.	.	.	2.c\	San-	2e\	.
*	*	*col	*	*	*	*	*
!	!	!	!	!	!	!	!LO:MO:mod=-ctus
2FF/	-ctus	2.A\	.	.	.	1f,<	ct(us)
.	.	.	.	4B-\	.	.	.
*	*ij	*	*	*	*	*	*
1F\	San-	.	.	1A\	.	.	.
*	*	*Xlig	*	*	*	*	*
!	!	!LO:TX:t=P:problem:kreska pseudotaktowa	!	!	!	!	!
.	.	4G/	.	.	.	.	.
*	*	*Xcol	*	*	*	*	*
=5-	=5-	=5-	=5-	=5-	=5-	=5-	=5-
*	*	*	*	*	*	*lig	*ij
.	.	4A/	.	.	.	1c	San-
.	.	4B-,<\	.	.	.	.	.
!LO:TX:t=P:problem:kreska pseudotaktowa	!	!	!	!LO:TX:t=P:problem:kreska pseudotaktowa	!	!	!
2E\	.	1c	.	2G/	.	.	.
*	*	*	*	*lig	*	*	*
1D	.	.	.	1d	.	1f	.
!	!	!LO:TX:t=P:problem:# above	!	!	!	!	!
!	!	!LO:N:acc=#	!	!	!	!	!
.	.	2Bn\	.	.	.	.	.
*	*	*	*	*	*	*Xlig	*
=6-	=6-	=6-	=6-	=6-	=6-	=6-	=6-
!	!	!LO:TX:t=P:problem:kreska pseudotaktowa	!	!	!	!	!
1.C	.	1c	ctus	1.G	.	2e\	.
!	!	!	!	!	!	!LO:TX:t=P:problem:kreska pseudotaktowa	!
.	.	.	.	.	.	2g\	.
.	.	0r	.	.	.	2c/	.
*	*	*	*	*Xlig	*	*	*
!	!	!	!	!LO:TX:t=P:problem:kreska pseudotaktowa	!	!	!
2AA/	.	.	.	2A/	.	1f\	.
=7-	=7-	=7-	=7-	=7-	=7-	=7-	=7-
2BB-/	.	.	.	2d\	.	.	.
2C/	.	.	.	1c	.	2e\	.
1GG	.	2r	.	.	.	1d	.
*	*	*	*ij	*	*	*	*
!	!	!LO:TX:t=P:problem:kreska pseudotaktowa	!	!LO:N:acc=#	!	!	!
.	.	2G/	San-	2Bn\	.	.	.
=8-	=8-	=8-	=8-	=8-	=8-	=8-	=8-
!	!	!	!	!LO:TX:t=P:problem:kreska pseudotaktowa	!	!LO:TX:t=P:problem:kreska pseudotaktowa	!LO:MO:mod=-ctus
2C/	-ctus	2C/	.	1c	-ctus	1e	ct(us)
*	*Xij	*	*	*	*Xij	*	*
4C/	San-	1c	.	.	.	.	.
!LO:TX:t=P:problem:kreska pseudotaktowa	!	!	!	!	!	!	!
4D/	.	.	.	.	.	.	.
4E/	.	.	.	1r	.	1r	.
4F/	.	.	.	.	.	.	.
1G\	.	2B-y\	.	.	.	.	.
=9-	=9-	=9-	=9-	=9-	=9-	=9-	=9-
.	.	1A	.	2r	.	1d	San-
!LO:TX:t=P:problem:kreska pseudotaktowa	!	!	!	!	!	!	!
2F#X\	.	.	.	2A/	San-	.	.
!	!	!LO:TX:t=P:problem:kreska pseudotaktowa	!	!	!	!	!
1.G	.	1G	ctus	2.B-y\	.	2G/	.
.	.	.	.	.	.	1g\	.
.	.	.	.	4A\	.	.	.
=10-	=10-	=10-	=10-	=10-	=10-	=10-	=10-
.	.	1r	.	4B-\	.	.	.
.	.	.	.	4c\	.	.	.
!LO:TX:t=P:problem:kreska pseudotaktowa	!	!	!	!	!	!LO:TX:t=P:problem:kreska pseudotaktowa	!
2D/	.	.	.	1d	.	2f\	.
1AA	.	1A	San-	.	.	1e	.
!	!	!	!	!LO:TX:t=P:problem:kreska pseudotaktowa	!	!	!
.	.	.	.	2c#X\	.	.	.
=11-	=11-	=11-	=11-	=11-	=11-	=11-	=11-
2.BB-/	.	2D/	.	1.d	.	2.d\	.
.	.	1B-	.	.	.	.	.
4C/	.	.	.	.	.	4e\	.
4D/	.	.	.	.	.	4f\	.
4E\	.	.	.	.	.	4g\	.
!LO:TX:t=P:problem:kreska pseudotaktowa	!	!	!	!	!	!	!
!LO:SIC:v:t=custos C	!	!LO:TX:t=P:problem:kreska pseudotaktowa	!	!	!	!	!
2Fny\	.	2A/	.	2cny\	.	1f\	.
!LO:LB:g=original	!	!	!	!	!	!	!
=12-	=12-	=12-	=12-	=12-	=12-	=12-	=12-
1C	.	1G	.	1c	.	.	.
.	.	.	.	.	.	2e\	.
!	!LO:MO:mod=-ctus	!	!	!LO:TX:t=P:problem:kreska pseudotaktowa	!	!LO:TX:t=P:problem:kreska pseudotaktowa	!LO:MO:mod=-ctus
2FF/	-ct(us)	2A/	ctus	1c	-ctus	1f	-ct(us)
*	*	*	*Xij	*	*	*	*Xij
2.F\	Do-	2.A/	Do-	.	.	.	.
=13-	=13-	=13-	=13-	=13-	=13-	=13-	=13-
.	.	.	.	2r	.	00r	.
4F\	-mi-	4A/	mi-	.	.	.	.
!	!	!LO:TX:t=P:problem:kreska pseudotaktowa	!	!	!	!	!
!LO:TX:t=P:problem:kreska pseudotaktowa	!LO:MO:mod=-nus	!LO:SIC:v:t=custos A	!LO:MO:mod=-nus	!	!	!	!
2E\	-n(us)	2G/	-n(us)	2.c\	Do-	.	.
!	!LO:MO:mod=De-	!LO:LB:g=original	!LO:MO:mod=De-	!	!	!	!
2F\	DE-	2A/	DE-	.	.	.	.
.	.	.	.	4c\	-mi-	.	.
!	!	!	!	!LO:TX:t=P:problem:kreska pseudotaktowa	!	!	!
!	!LO:MO:mod=-us	!LO:TX:t=P:problem:kreska pseudotaktowa	!LO:MO:mod=-us	!LO:SIC:v:t=custos c	!LO:MO:mod=-nus	!	!
2D/	-(us)	2F/	-(us)	2B-\	-n(us)	.	.
!	!	!	!	!LO:LB:g=original	!	!	!
=14-	=14-	=14-	=14-	=14-	=14-	=14-	=14-
!	!	!	!	!	!LO:MO:mod=De-	!	!
2E\	Sa-	2G/	Sa-	2c\	DE-	.	.
!	!	!	!	!LO:TX:t=P:problem:kreska pseudotaktowa	!LO:MO:mod=-us	!	!
2.F\	.	2.A/	.	2A/	-(us)	.	.
.	.	.	.	4d\	Sa-	.	.
4E\	.	4G/	.	4c\	.	.	.
4D/	.	4F/	.	1c\	-ba-	.	.
!	!	!LO:TX:t=P:problem:kreska pseudotaktowa	!	!	!	!	!
4C/	.	4E/	.	.	.	.	.
=15-	=15-	=15-	=15-	=15-	=15-	=15-	=15-
2.D/	.	2.F/	.	.	.	2r	.
!	!	!	!	!LO:TX:t=P:problem:kreska pseudotaktowa	!	!	!
!	!	!	!	!LO:TX:t=P:problem:# above	!	!	!
!	!	!	!	!LO:N:acc=#	!	!	!
.	.	.	.	2Bn\	.	2f\	Ple-
4D/	-ba-	4F/	-ba-	.	.	.	.
!LO:TX:t=P:problem:kreska pseudotaktowa	!	!LO:TX:t=P:problem:kreska pseudotaktowa	!	!	!	!	!
1C	-oth	1G	-oth	2c,<\	-oth	2e\	-ni
!	!	!	!	!	!	!	!LO:MO:mod=sunt
.	.	.	.	2c\	Ple-	2c/	su(n)t
=16-	=16-	=16-	=16-	=16-	=16-	=16-	=16-
1r	.	0r	.	2B-y\	-ni	2d\	cae-
!	!	!	!	!	!	!LO:TX:t=P:problem:kreska pseudotaktowa	!
!	!	!	!	!LO:TX:t=P:problem:kreska pseudotaktowa	!	!LO:SIC:v:t=custos f	!
.	.	.	.	2G/	sunt	2e\	.
!	!	!	!	!	!	!LO:LB:g=original	!
1F	Ple-	.	.	4A\	cae-	4f\	.
.	.	.	.	4B-\	.	4g\	.
.	.	.	.	4c\	.	4a\	.
!	!	!	!	!	!	!LO:TX:t=P:problem:kreska pseudotaktowa	!
.	.	.	.	4d\	.	4f\	.
=17-	=17-	=17-	=17-	=17-	=17-	=17-	=17-
2E\	.	1c	Ple-	1e	.	2g\	.
2C/	.	.	.	.	.	2e\	.
2D/	-ni	2B-\	.	2d\	.	2f\	.
!LO:TX:t=P:problem:kreska pseudotaktowa	!	!LO:TX:t=P:problem:kreska pseudotaktowa	!	!LO:TX:t=P:problem:kreska pseudotaktowa	!	!LO:TX:t=P:problem:kreska pseudotaktowa	!
2E\	sunt	2G/	-ni	2c\	.	2g\	.
=18-	=18-	=18-	=18-	=18-	=18-	=18-	=18-
1F	cae-	2.A/	sunt	2c\	li	2f,<\	-li
*	*	*	*	*	*ij	*	*ij
.	.	.	.	2f\	Ple-	2a\	Ple-
.	.	4B-\	cae-	.	.	.	.
2C/	-li	1c	.	2e\	-ni	2g\	-ni
*	*ij	*	*	*	*	*	*
!	!	!	!	!LO:TX:t=P:problem:kreska pseudotaktowa	!	!LO:TX:t=P:problem:kreska pseudotaktowa	!
2C/	Ple-	.	.	2c\	sunt	2e\	sunt
=19-	=19-	=19-	=19-	=19-	=19-	=19-	=19-
2BB-/	-ni	2F,</	-li	2d\	cae-	2f\	cae-
!LO:TX:t=P:problem:kreska pseudotaktowa	!	!LO:TX:t=P:problem:kreska pseudotaktowa	!	!	!	!	!
2GG/	sunt	2B-\	Ple-	4c\	.	2g\	.
.	.	.	.	4B-\	.	.	.
!	!	!	!	!LO:TX:t=P:problem:kreska pseudotaktowa	!	!	!
1FF	cae-	2A\	-ni	1c	-li	1a	.
!	!	!	!LO:MO:mod=sunt	!	!	!	!
.	.	4F/	su(n)t	.	.	.	.
!	!	!LO:TX:t=P:problem:kreska pseudotaktowa	!	!	!	!	!
.	.	4f\	Ple-	.	.	.	.
=20-	=20-	=20-	=20-	=20-	=20-	=20-	=20-
!	!	!	!	!	!	!LO:TX:t=P:problem:kreska pseudotaktowa	!
2C/	-li	2e\	-ni	1r	.	1g	-li
*	*	*	*	*	*	*	*Xij
!	!	!	!LO:MO:mod=sunt	!	!	!	!
2C/	Ple-	2c\	su(n)t	.	.	.	.
2BB-/	-ni	2d\	cae-	2r	.	2r	.
!	!	!	!	!LO:TX:t=P:problem:kreska pseudotaktowa	!	!	!
2GG/	sunt	2e\	.	2B-\	Ple-	2g\	Ple-
=21-	=21-	=21-	=21-	=21-	=21-	=21-	=21-
!LO:TX:t=P:problem:kreska pseudotaktowa	!	!LO:TX:t=P:problem:kreska pseudotaktowa	!	!	!	!	!
1D	cae-	1f	-li	2A/	-ni	2f\	-ni
!	!	!	!	!LO:TX:t=P:problem:kreska pseudotaktowa	!	!LO:TX:t=P:problem:kreska pseudotaktowa	!LO:MO:mod=sunt
.	.	.	.	2F/	sunt	2d\	su(n)t
2C,</	-li	0r	.	1c	cae-	4e\	cae-
.	.	.	.	.	.	4d\	.
2c\	Ple-	.	.	.	.	4e\	.
.	.	.	.	.	.	4f\	.
=22-	=22-	=22-	=22-	=22-	=22-	=22-	=22-
2B-\	-ni	.	.	2d\	-li	1g	.
!LO:TX:t=P:problem:kreska pseudotaktowa	!	!	!	!LO:TX:t=P:problem:kreska pseudotaktowa	!	!	!
2G\	sunt	.	.	2d\	Ple-	.	.
4A\	cae-	2r	.	2c\	-ni	2e\	.
4G\	.	.	.	.	.	.	.
*	*	*	*ij	*	*	*	*
!	!	!LO:TX:t=P:problem:kreska pseudotaktowa	!	!	!	!LO:TX:t=P:problem:kreska pseudotaktowa	!
4F\	.	2c\	Ple-	2A/	sunt	2f\	-li
!LO:TX:t=P:problem:kreska pseudotaktowa	!	!	!	!	!	!	!
!LO:SIC:v:t=custos D	!	!	!	!	!	!	!
4E\	.	.	.	.	.	.	.
!LO:LB:g=original	!	!	!	!	!	!	!
=23-	=23-	=23-	=23-	=23-	=23-	=23-	=23-
2D/	.	2B-\	-ni	2d\	cae-	2f\	et
2E\	.	2G/	sunt	4c\	.	4e\	ter-
!	!	!	!	!LO:TX:t=P:problem:kreska pseudotaktowa	!	!	!
!	!	!	!	!LO:SIC:v:t=custos A	!	!	!
.	.	.	.	4B-\	.	4d\	.
!	!	!	!	!LO:LB:g=original	!	!	!
1F	.	2.A\	cae-	4A/	.	2.c/	.
.	.	.	.	4G/	.	.	.
!	!	!	!	!LO:TX:t=P:problem:kreska pseudotaktowa	!	!	!
.	.	.	.	2F/	.	.	.
!	!	!LO:TX:t=P:problem:kreska pseudotaktowa	!	!	!	!LO:TX:t=P:problem:kreska pseudotaktowa	!
.	.	4B-\	.	.	.	4d\	.
=24-	=24-	=24-	=24-	=24-	=24-	=24-	=24-
!	!	!	!	!LO:TX:t=P:problem:kreska pseudotaktowa	!	!	!
2C/	-li	2c\	.	2G,</	-li	2e-X\	.
*	*Xij	*	*	*	*Xij	*	*
!LO:TX:t=P:problem:kreska pseudotaktowa	!	!	!	!	!	!	!
!LO:N:acc=#	!LO:MO:mod=et	!	!	!	!LO:MO:mod=et	!	!
2BBn/	Et	4d\	-li	2G/	Et	2d\	.
*	*	*	*Xij	*	*	*	*
!	!	!	!LO:MO:mod=et	!	!	!	!
.	.	4d\	Et	.	.	.	.
!	!	!LO:TX:t=P:problem:kreska pseudotaktowa	!	!	!	!	!
!	!	!LO:SIC:v:t=custos d	!	!	!	!LO:TX:t=P:problem:kreska pseudotaktowa	!
1C	ter-	1e-X	ter-	1G	ter-	1c	-ra
!	!	!LO:PB:g=original	!	!	!	!	!
=25-	=25-	=25-	=25-	=25-	=25-	=25-	=25-
2GG/	-ra	2d\	-ra	2G/	-ra	2.B-/	glo-
2.G\	glo-	4d\	glo-	2.G/	glo-	.	.
!	!	!LO:TX:t=P:problem:kreska pseudotaktowa	!	!	!	!	!
.	.	4c\	.	.	.	4c/	.
.	.	4B-\	.	.	.	4d\	.
4G\	ri-	4c\	.	4G/	-ri-	4eny\	.
!LO:TX:t=P:problem:kreska pseudotaktowa	!	!	!	!LO:TX:t=P:problem:kreska pseudotaktowa	!	!	!
2F\	-a	4d\	.	2A/	-a	2.f\	.
!	!	!LO:TX:t=P:problem:kreska pseudotaktowa	!	!	!	!	!
.	.	4c\	.	.	.	.	.
=26-	=26-	=26-	=26-	=26-	=26-	=26-	=26-
!	!	!LO:N:acc=#	!	!	!	!	!
0G	tu-	4.Bn\	.	0G	tu-	.	.
.	.	.	.	.	.	4f\	-ri-
.	.	8B\	-ri-	.	.	.	.
!	!	!	!	!	!	!LO:TX:t=P:problem:kreska pseudotaktowa	!
!	!	!	!	!	!	!LO:SIC:v:t=custos d	!
.	.	4c\	-a	.	.	2e-X\	-a
.	.	2c\	tu-	.	.	.	.
!	!	!	!	!	!	!LO:LB:g=original	!
.	.	.	.	.	.	1d	tu-
!	!	!LO:TX:t=P:problem:# above	!	!	!	!	!
!	!	!LO:N:acc=#	!	!	!	!	!
.	.	8Bn\L	.	.	.	.	.
.	.	8A\J	.	.	.	.	.
!	!	!LO:TX:t=P:problem:kreska pseudotaktowa	!	!	!	!	!
!	!	!LO:TX:t=P:problem:# above	!	!	!	!	!
!	!	!LO:N:acc=#	!	!	!	!	!
.	.	2B\	.	.	.	.	.
=27-	=27-	=27-	=27-	=27-	=27-	=27-	=27-
!LO:TX:t=P:problem:kreska pseudotaktowa	!	!LO:TX:t=P:problem:kreska pseudotaktowa	!	!	!	!LO:TX:t=P:problem:kreska pseudotaktowa	!
1C	-a	1c	-a	2G,</	-a	1eny	-a
!	!	!	!	!LO:TX:t=P:problem:kreska pseudotaktowa	!	!	!
.	.	.	.	2G/	Ho-	.	.
!LO:SIC:s=2C	!	!	!	!	!	!	!
2C;/	Ho-	2G/	Ho-	2.c\	-san-	0r	.
!LO:TX:t=P:problem:kreska pseudotaktowa:między nutą a kropką	!	!	!	!	!	!	!
[<2F\	-san-	2.A/	-san-	.	.	.	.
!	!	!	!	!LO:TX:t=P:problem:kreska pseudotaktowa	!	!	!
.	.	.	.	4d\	-na	.	.
=28-	=28-	=28-	=28-	=28-	=28-	=28-	=28-
!LO:MO:mod=!null:null	!	!	!	!	!	!	!
!LO:N:xstem:cue	!	!	!	!	!	!	!
4F]	.	.	.	4c\	in	.	.
4G\	-na	4B-y\	-na	4B-\	ex-	.	.
4.F\	in	4.A/	in	2.c\	-cel-	.	.
!LO:TX:t=P:problem:kreska pseudotaktowa	!	!LO:TX:t=P:problem:kreska pseudotaktowa	!	!	!	!	!
8E\	ex-	8G/	ex-	.	.	.	.
!	!	!	!	!	!	!LO:TX:t=P:problem:kreska pseudotaktowa	!
2D/	-cel-	2F/	-cel-	.	.	1r	.
.	.	.	.	4B-\	.	.	.
!LO:TX:t=P:problem:kreska pseudotaktowa	!	!LO:TX:t=P:problem:kreska pseudotaktowa	!	!	!	!	!
2C/	-ſis	2E/	-ſis	4c\	.	.	.
!	!	!	!	!LO:TX:t=P:problem:kreska pseudotaktowa	!	!	!
.	.	.	.	4G/	ſis	.	.
=29-	=29-	=29-	=29-	=29-	=29-	=29-	=29-
0r	.	2r	.	2c\	Ho-	4r	.
.	.	.	.	.	.	4A/	Ho-
.	.	4r	.	4A/	-san-	2.f\	-san-
*	*	*	*ij	*	*	*	*
!	!	!LO:TX:t=P:problem:kreska pseudotaktowa	!	!LO:TX:t=P:problem:kreska pseudotaktowa	!	!	!
.	.	4F/	Ho-	4A/	-na	.	.
*	*	*	*	*	*ij	*	*
.	.	2.B-\	-san-	2.d\	Ho-	.	.
.	.	.	.	.	.	4g\	.
.	.	.	.	.	.	4f\	.
!	!	!	!	!LO:TX:t=P:problem:kreska pseudotaktowa	!	!LO:TX:t=P:problem:kreska pseudotaktowa	!
.	.	4c\	-na	4e-X\	-san-	4e-X\	-na
=30-	=30-	=30-	=30-	=30-	=30-	=30-	=30-
!	!	!	!	!LO:N:acc=#	!	!	!
2r	.	4G/	in	8Bn\	-na	4d\	in
*	*	*	*	*	*Xij	*	*
.	.	.	.	8G/	in	.	.
.	.	4C/	ex-	2c\	ex-	4e-X\	ex-
!	!	!LO:TX:t=P:problem:kreska pseudotaktowa:między nutą a kropką	!	!	!	!LO:TX:t=P:problem:kreska pseudotaktowa	!
4r	.	2.G/	-cel-	.	.	2d\	-cel-
*	*ij	*	*	*	*	*	*
!	!	!	!	!LO:TX:t=P:problem:kreska pseudotaktowa	!	!	!
!LO:TX:t=P:problem:kreska pseudotaktowa	!	!	!	!LO:N:acc=#	!	!	!
4GG/	Ho-	.	.	4Bn\	-cel-	.	.
!	!	!	!	!	!	!LO:N:acc=#	!
2.C/	-san	.	.	2c\	ſis	4en\	.
.	.	4A/	-ſis	.	.	2e\	.
.	.	4G/	in	2r	.	.	.
!LO:TX:t=P:problem:kreska pseudotaktowa	!	!	!	!	!	!LO:TX:t=P:problem:kreska pseudotaktowa	!
4D/	na	4F/	ex-	.	.	4f\	-ſis
=31-	=31-	=31-	=31-	=31-	=31-	=31-	=31-
4.C/	in	2G/	-cel-	4r	.	2e\	in
*	*	*	*	*	*ij	*	*
.	.	.	.	4G/	in	.	.
8BB-y/	ex	.	.	.	.	.	.
!	!	!LO:TX:t=P:problem:kreska pseudotaktowa	!	!	!	!	!
!	!	!LO:SIC:v:t=custos F	!	!LO:TX:t=P:problem:kreska pseudotaktowa:między nutą a kropką	!	!	!
2.AA/	cel-	2A/	-ſis	2.c\	ex-	4e\	ex-
.	.	.	.	.	.	2f\	-cel-
!	!	!LO:LB:g=original	!	!	!	!	!
.	.	1r	.	.	.	.	.
4BB-/	ſis	.	.	4d\	-cel-	4f\	.
4C/	Ho-	.	.	4c\	.	4e\	.
!	!	!	!	!LO:TX:t=P:problem:kreska pseudotaktowa	!	!	!
!	!	!	!	!LO:SIC:v:t=custos A	!	!LO:TX:t=P:problem:kreska pseudotaktowa	!
8D/L	-san-	.	.	4B-y\	.	4d\	.
!LO:TX:t=P:problem:kreska pseudotaktowa	!	!	!	!	!	!	!
8E/J	.	.	.	.	.	.	.
!	!	!	!	!LO:PB:g=original	!	!	!
=32-	=32-	=32-	=32-	=32-	=32-	=32-	=32-
8F\L	-na	4r	.	2A/	ſis	2c/	ſis
8C\J	.	.	.	.	.	.	.
2F\	in	4F/	Ho-	.	.	.	.
!	!	!LO:TX:t=P:problem:kreska pseudotaktowa:między nutą a kropką	!	!LO:TX:t=P:problem:kreska pseudotaktowa	!	!	!
.	.	2.c\	-san-	2G/	in	2r	.
4E\	ex-	.	.	.	.	.	.
*	*	*	*	*	*	*	*ij
0F	-cel-	.	.	1.F	ex-	2f\	Ho-
.	.	4d\	-na	.	.	.	.
.	.	4c\	in	.	.	4c/	-san-
!	!	!LO:TX:t=P:problem:kreska pseudotaktowa	!	!	!	!LO:TX:t=P:problem:kreska pseudotaktowa	!
.	.	4B-\	ex-	.	.	4d\	-na
=33-	=33-	=33-	=33-	=33-	=33-	=33-	=33-
.	.	4A/	-cel-	.	.	4c/	in
.	.	4G/	.	.	.	4B-/	ex-
.	.	2F/	.	2c\	-cel-	2A/	-cel-
!LO:SIC:s=1C;	!	!	!	!	!	!	!
1Cl;;	ſis	1El;	-ſis	1cl;	-ſis	1Gl;	ſis
*	*Xij	*	*Xij	*	*Xij	*	*Xij
==	==	==	==	==	==	==	==
*-	*-	*-	*-	*-	*-	*-	*-
!!!system-decoration: [(*)]
!!!RDF**kern: < = below
!!LO:MO:ori
!!!RDF**kern: l = terminal long
!!LO:MO:end
!!!filter-modern: sic -sq | shed -e "s/TX(.*):t=P:/tx$1:t=P:/LG" | shed -k -e "s/LO:N:acc/LO:n:acc:/L" | shed -e "s/^(\d+[\/\\]right)/$1yy/I; s/^(\d+[\/\\]left)/$1yy/I" | shed -e "s/-//B" | autostem -r | tie -s | shed -k -e "s/[<>]//g" | shed -k -e "s/[<>]//g" | humtr -p | shed -e "s/^custos:/Xcustos:/I" | modori -m
!!!ENC: Marta Opryszak
!!!END: 2022-05-08
!!!ENC: Andrzej Kubiczek
!!!END: 2022-05-15
!!!ENC-modern: Andrzej Borzym
!!!END-modern: 2022-06-27
